assets/img/braze_icons/credit-card-shield.svg

<svg fill="none" height="24" viewBox="0 0 24 24" width="24" xmlns="http://www.w3.org/2000/svg"><g fill="#801ed7"><path d="m20.1496 13.1998 2.1869.7814c.3979.1422.6635.5191.6635.9417v2.5023c0 1.5391-1.0564 2.6899-1.8595 3.3597-.4264.3556-.8476.6312-1.1599.8172-.1573.0937-.2897.1664-.385.2167-.0538.0284-.1081.0558-.1627.0827l-.0015.0006-.0011.0006c-.2722.1297-.5889.1295-.8611-.0003-.0553-.0271-.1103-.0549-.1648-.0836-.0953-.0503-.2277-.123-.385-.2167-.3123-.186-.7335-.4616-1.1599-.8172-.803-.6698-1.8595-1.8206-1.8595-3.3597v-2.5023c0-.4225.2655-.7994.6633-.9416l2.1859-.7815c.7432-.2661 1.5572-.2661 2.3004 0z"/><path d="m18.8385 3h-13.67704c-.5271-.00002-.98193-.00003-1.35648.03057-.39535.0323-.78857.10362-1.16695.29641-.56448.28762-1.02343.74657-1.31105 1.31105-.19279.37838-.26411.7716-.29641 1.16695-.030598.37454-.030585.8293-.03057 1.3564 0 .46314.37545.83862.83859.83862h20.32281c.4632 0 .8386-.37544.8386-.83856 0-.52714 0-.9819-.0306-1.35646-.0323-.39535-.1036-.78857-.2964-1.16695-.2876-.56448-.7465-1.02342-1.311-1.31104-.3784-.1928-.7716-.26411-1.167-.29642-.3745-.0306-.8293-.03058-1.3565-.03057z"/><path d="m1.54601 10.109c.21391-.109.49394-.109 1.05399-.109h18.8c.5601 0 .8401 0 1.054.109.1882.0959.3411.2488.437.437.109.2139.109.494.109 1.054 0 .2408-.2385.4088-.4653.3278l-1.7121-.6118c-1.1784-.4215-2.4689-.4213-3.6475.0004l-2.1851.7812c-1.1934.4267-1.99 1.5574-1.99 2.8249v2.5024c0 .1766.0085.3491.0247.5174.0407.4247.0611.637.0109.7544-.0495.1157-.1095.1817-.22.2421-.112.0612-.295.0612-.6608.0612h-6.99351c-.527 0-.98182 0-1.35631-.0306-.39535-.0323-.78857-.1036-1.16695-.2964-.56448-.2876-1.02343-.7465-1.31105-1.311-.19279-.3784-.26411-.7716-.29641-1.167-.030598-.3745-.030585-.8293-.03057-1.3564v-3.2386c0-.5601 0-.8401.10899-1.054.09588-.1882.24886-.3411.43702-.437z"/></g></svg>

<svg width="24" height="24" viewBox="0 0 24 24" fill="none" xmlns="http://www.w3.org/2000/svg">
<path d="M20.1496 13.1998L22.3365 13.9812C22.7344 14.1234 23 14.5003 23 14.9229V17.4252C23 18.9643 21.9436 20.1151 21.1405 20.7849C20.7141 21.1405 20.2929 21.4161 19.9806 21.6021C19.8233 21.6958 19.6909 21.7685 19.5956 21.8188C19.5418 21.8472 19.4875 21.8746 19.4329 21.9015L19.4314 21.9021L19.4303 21.9027C19.1581 22.0324 18.8414 22.0322 18.5692 21.9024C18.5139 21.8753 18.4589 21.8475 18.4044 21.8188C18.3091 21.7685 18.1767 21.6958 18.0194 21.6021C17.7071 21.4161 17.2859 21.1405 16.8595 20.7849C16.0565 20.1151 15 18.9643 15 17.4252V14.9229C15 14.5004 15.2655 14.1235 15.6633 13.9813L17.8492 13.1998C18.5924 12.9337 19.4064 12.9337 20.1496 13.1998Z" fill="#801ED7"/>
<path d="M18.8385 3L5.16146 3C4.63436 2.99998 4.17953 2.99997 3.80498 3.03057C3.40963 3.06287 3.01641 3.13419 2.63803 3.32698C2.07355 3.6146 1.6146 4.07355 1.32698 4.63803C1.13419 5.01641 1.06287 5.40963 1.03057 5.80498C0.999972 6.17952 0.999985 6.63428 1 7.16138C1 7.62452 1.37545 8 1.83859 8H22.1614C22.6246 8 23 7.62456 23 7.16144C23 6.6343 23 6.17954 22.9694 5.80498C22.9371 5.40963 22.8658 5.01641 22.673 4.63803C22.3854 4.07355 21.9265 3.61461 21.362 3.32699C20.9836 3.13419 20.5904 3.06288 20.195 3.03057C19.8205 2.99997 19.3657 2.99999 18.8385 3Z" fill="#801ED7"/>
<path d="M1.54601 10.109C1.75992 10 2.03995 10 2.6 10H21.4C21.9601 10 22.2401 10 22.454 10.109C22.6422 10.2049 22.7951 10.3578 22.891 10.546C23 10.7599 23 11.04 23 11.6C23 11.8408 22.7615 12.0088 22.5347 11.9278L20.8226 11.316C19.6442 10.8945 18.3537 10.8947 17.1751 11.3164L14.99 12.0976C13.7966 12.5243 13 13.655 13 14.9225V17.4249C13 17.6015 13.0085 17.774 13.0247 17.9423C13.0654 18.367 13.0858 18.5793 13.0356 18.6967C12.9861 18.8124 12.9261 18.8784 12.8156 18.9388C12.7036 19 12.5206 19 12.1548 19L5.16129 19C4.63429 19 4.17947 19 3.80498 18.9694C3.40963 18.9371 3.01641 18.8658 2.63803 18.673C2.07355 18.3854 1.6146 17.9265 1.32698 17.362C1.13419 16.9836 1.06287 16.5904 1.03057 16.195C0.999972 15.8205 0.999985 15.3657 1 14.8386V11.6C1 11.0399 1 10.7599 1.10899 10.546C1.20487 10.3578 1.35785 10.2049 1.54601 10.109Z" fill="#801ED7"/>
</svg>
